X: 304
T: Yinyan he
L: 1/8
M: 2/4
K: G
e ed2 [I:setbarnb 1]| 
e g e e | 
e d c A | 
d3e | 
c d g e | 
d> e d c | 
A d A/ B/ A/ G/ | 
A/ G/ F F/ G/ F/ G/ | 
A/ G/F2G | 
A/ G/F2G | 
A> A d e | 
d3e | 
A> B A G/ E/ | 
G D G E | 
D3E | 
D4 |]

@@@ Tune index: 9178
